!!!!SEGMENT: pl-kk--kk-i-3--020-002_anonim--paschale-et-in-terra.krn
!!!cenid: 15xx:628
!!!COM: Anonim
!!!COM-rismid: pe30004985
!!!CDT:
!!!CNT:
!!!OPR: Paschale
!!!OTL: Et in terra
!!!OMV: 002
!!!PDT:
!!!AGN:
!!!SMS-siglum: PL-Kk
!!!SMS-shelfmark: Kk.I.3
!!!SMS-shelfwork: 020-002 M
!!!SMS-variant:
!!!SMS-altvar:
!!!NIFC-rismid: 1001145519
!!!URL-scan: http://repozytorium.nifc.pl/skany/pl-kk-nut--i-3
!!!ONB-nifc: UWAGA: Discantus (s. 83v-86v, skan 0086-0089), Tenor (s. 62v-64v, skan 0235-0237), Bassus (s. 81v-84v, skan 0385-0388)
!!!key:
**kern	**text	**kern	**text	**kern	**text
*part3	*part3	*part2	*part2	*part1	*part1
*staff3	*staff3	*staff2	*staff2	*staff1	*staff1
*I"[Bassus]	*	*I"[Tenor]	*	*I"[Discantus]	*
*I'B	*	*I'T	*	*I'S	*
*ICvox	*	*ICvox	*	*ICvox	*
*Ibass	*	*Itenor	*	*Isoprn	*
*clefF3	*	*clefC4	*	*clefC3	*
*k[]	*	*k[]	*	*k[]	*
*C:	*	*C:	*	*C:	*
*yyM2/1	*	*yyM2/1	*	*yyM2/1	*
=1	=1	=1	=1	=1	=1
!!LO:TX:t=P:problem: brak zapisanego metrum	!	!	!	!	!
1G	et	1G	et	0g	et
1E	in	1B	in	.	.
=2	=2	=2	=2	=2	=2
*2\right	*	*2\right	*	*2\right	*
*	*	*lig	*	*	*
2C/	.	1c	.	2e/	ni
1c	ter-	.	.	2f\	.
.	.	1d	.	1g	ter-
4B\	.	.	.	.	.
4A\	.	.	.	.	.
*	*	*Xlig	*	*	*
=3	=3	=3	=3	=3	=3
2B\	.	1d	ter-	1g	-ra
2G/	.	.	.	.	.
*	*	*lig	*	*	*
1A	.	1c	.	2e/	.
.	.	.	.	1f	.
=4	=4	=4	=4	=4	=4
2E/	.	1B	.	.	.
*custos:F	*	*	*	*	*
2G/	.	.	.	1e	.
!LO:LB:g=original	!	!	!	!	!
*	*	*Xlig	*	*	*
*	*	*lig	*	*	*
1F	-ra	1A	-ra	.	.
.	.	.	.	2d/	pax
=5	=5	=5	=5	=5	=5
1E	pax	1B	.	2e/	.
.	.	.	.	1g	.
*	*	*Xlig	*	*	*
2E/	ho-	1B	pax	.	.
2D/	.	.	.	2f\	.
=6	=6	=6	=6	=6	=6
*	*	*lig	*	*	*
*	*	*	*	*custos:d	*
2E/	.	1B	ho-	2e/	ho-
!	!	!	!	!LO:LB:g=original	!
1G	.	.	.	2d/	.
.	.	1A	.	2e/	.
2F/	.	.	.	2f/	.
*	*	*Xlig	*	*	*
=7	=7	=7	=7	=7	=7
1E	.	1B	.	1g	-mi-
*	*	*custos:B	*	*	*
2C/	-mi-	1c	-mi-	2e/	.
2F/	.	.	.	1a	.
!	!	!LO:LB:g=original	!	!	!
=8	=8	=8	=8	=8	=8
1G	.	1B	.	.	.
.	.	.	.	1g	.
*lig	*	*lig	*	*	*
1D	-ni-	1A	-ni-	.	.
.	.	.	.	2f/	.
=9	=9	=9	=9	=9	=9
1E	.	1G	.	1g	-ni-
*Xlig	*	*Xlig	*	*	*
1C	-bus	1G	-bus	1e	-bus
=10	=10	=10	=10	=10	=10
*lig	*	*lig	*	*lig	*
1G	bo-	1B	bo-	1d	bo-
*custos:D	*	*	*	*	*
1C	.	1c	.	1e	.
!LO:LB:g=original	!	!	!	!	!
*Xlig	*	*Xlig	*	*Xlig	*
=11	=11	=11	=11	=11	=11
*lig	*	*lig	*	*lig	*
1D	-ne	1A	-ne	1f	-ne
1E	.	1G	.	1g	.
*Xlig	*	*Xlig	*	*Xlig	*
=12	=12	=12	=12	=12	=12
1F	vo-	1A	vo-	1c	vo-
2D/	-lun-	1A	-lun-	1f	-lun-
2F/	.	.	.	.	.
=13	=13	=13	=13	=13	=13
*lig	*	*lig	*	*	*
1G	.	1B	.	2d/	.
.	.	.	.	1g	.
1D	.	1A	.	.	.
.	.	.	.	2f\	-ta-
*Xlig	*	*Xlig	*	*	*
=14	=14	=14	=14	=14	=14
1d	-ta-	1G	-ta-	2g\	-tis
.	.	.	.	1G	.
2e\	-tis	1G	-tis	.	.
1d	.	.	.	1B	lau-
=15	=15	=15	=15	=15	=15
*	*	*lig	*	*	*
.	.	1G	lau-	.	.
2B\	lau-	.	.	2d/	.
*	*	*	*	*lig	*
2A\	-da-	1A	.	1c	-da-
1F	.	.	.	.	.
*	*	*Xlig	*	*	*
=16	=16	=16	=16	=16	=16
*	*	*lig	*	*	*
.	.	1c	-da-	1A	.
1A	.	.	.	.	.
*	*	*	*	*Xlig	*
*	*	*custos:A	*	*	*
.	.	1B	.	1B	-mus
1G	-mus	.	.	.	.
!	!	!LO:LB:g=original	!	!	!
*	*	*Xlig	*	*	*
=17	=17	=17	=17	=17	=17
.	.	1A	-mvs	1c	te
2F/	te	.	.	.	.
*	*	*lig	*	*	*
2G/	.	1G	te	2B/	.
2E/	.	.	.	2c/	.
=18	=18	=18	=18	=18	=18
1D	.	1A	.	1d	be-
*	*	*Xlig	*	*	*
1F	be-	1A	be-	2c/	-ne-
.	.	.	.	2d/	.
=19	=19	=19	=19	=19	=19
*	*	*lig	*	*	*
2E/	-ne-	1B	-ne-	2e/	.
2G/	.	.	.	2d/	-di-
*	*	*	*	*custos:g	*
2F/	.	1c	.	2a\	-ci-
!	!	!	!	!LO:LB:g=original	!
2E/	.	.	.	2g\	.
*	*	*Xlig	*	*	*
=20	=20	=20	=20	=20	=20
2D/	-di-	1d	.	2f\	.
2G/	.	.	.	2g\	.
*	*	*lig	*	*	*
2F/	-ci-	1d	-di-	2a\	.
2G/	.	.	.	1g	-mus
=21	=21	=21	=21	=21	=21
1A	.	1c	-ci-	.	.
.	.	.	.	2f\	te
*	*	*Xlig	*	*	*
2G/	.	1B	.	1g	a-
2E/	.	.	.	.	.
=22	=22	=22	=22	=22	=22
1F	mus	1A	mus	1a	-do-
1E	te	1B,	te	1g	-ra-
=23	=23	=23	=23	=23	=23
1G	a-	1G	a-	2g\	.
.	.	.	.	2e/	.
*custos:D	*	*	*	*	*
1F	-do-	1A	-do-	1f	.
!LO:LB:g=original	!	!	!	!	!
=24	=24	=24	=24	=24	=24
*	*	*custos:B	*	*	*
2D/	-ra-	1A	-ra-	1f	-mus
2F/	.	.	.	.	.
!	!	!LO:LB:g=original	!	!	!
*	*	*	*	*lig	*
1E	.	1B	.	1g	.
=25	=25	=25	=25	=25	=25
*	*	*lig	*	*	*
1C	.	1c	.	1e	.
*lig	*	*	*	*Xlig	*
*	*	*	*	*custos:d	*
1G	-mus	1B	.	1d	.
*	*	*Xlig	*	*	*
!	!	!	!	!LO:LB:g=original	!
=26	=26	=26	=26	=26	=26
*	*	*lig	*	*lig	*
1D	.	1A	-mus	1d	te
*Xlig	*	*	*	*	*
1E	.	1G	.	1B	.
*	*	*Xlig	*	*Xlig	*
=27	=27	=27	=27	=27	=27
2E/	te	1G	te	1B	glo-
1G	glo-	.	.	.	.
.	.	1B	glo-	1G	-ri-
1B	-ri-	.	.	.	.
=28	=28	=28	=28	=28	=28
.	.	1G	-ri-	1B	-fi-
1d	-fi-	.	.	.	.
.	.	1B	-fi-	1d	-ca-
1G	-ca-	.	.	.	.
=29	=29	=29	=29	=29	=29
*	*	*lig	*	*	*
.	.	1d	-ca-	2G/	.
2B\	-mus	.	.	1g	.
1A	.	1c	.	.	.
.	.	.	.	2f\	-mus
*	*	*Xlig	*	*	*
=30	=30	=30	=30	=30	=30
*	*	*lig	*	*	*
1G	.	1d	-mus	1g	.
2A/	.	1c	.	2e\	.
*custos:G	*	*	*	*	*
2F/	.	.	.	1f	.
!LO:LB:g=original	!	!	!	!	!
*	*	*Xlig	*	*	*
=31	=31	=31	=31	=31	=31
*	*	*lig	*	*	*
1G	.	1B	te	.	.
.	.	.	.	2e\	.
1F	.	1c	.	1f	.
*	*	*Xlig	*	*	*
=32	=32	=32	=32	=32	=32
0D	.	0d	.	0a	.
=33	=33	=33	=33	=33	=33
*	*	*lig	*	*	*
1F	.	1c	.	1a	te
1G	.	1B	.	1g	.
*	*	*Xlig	*	*	*
=34	=34	=34	=34	=34	=34
*	*	*	*	*custos:d	*
*	*	*custos:G	*	*	*
!LO:TX:t=P:problem=fermata powyżej i poniżej	!	!	!	!LO:TX:t=P:problem=fermata powyżej i poniżej	!
0D;	te	0A;	.	0f;	.
!	!	!LO:LB:g=original	!	!LO:LB:g=original	!
=35	=35	=35	=35	=35	=35
1G	Gra-	1G	Gra-	2d/	gra-
.	.	.	.	1g	.
*lig	*	*lig	*	*	*
1D	-ti-	1A	-ti-	.	.
.	.	.	.	2f\	-ti-
=36	=36	=36	=36	=36	=36
1G	.	1B	.	0g	-as
*Xlig	*	*Xlig	*	*	*
1G	-as	1B	-as	.	.
=37	=37	=37	=37	=37	=37
*lig	*	*	*	*	*
1E	a-	1B	a-	1g	a-
1F	.	1A	-gi-	0f	-gi-
*Xlig	*	*	*	*	*
=38	=38	=38	=38	=38	=38
*custos:G	*	*	*	*	*
*	*	*lig	*	*	*
1F	-gi-	1A	-mus	.	.
!LO:LB:g=original	!	!	!	!	!
2G/	-mus	1B	.	2d/	-mus
1E	.	.	.	2g\	.
*	*	*Xlig	*	*	*
=39	=39	=39	=39	=39	=39
*	*	*lig	*	*	*
.	.	1c	.	2e/	.
1A	.	.	.	1f	.
.	.	1B	.	.	.
2G/	.	.	.	1e	.
*	*	*Xlig	*	*	*
=40	=40	=40	=40	=40	=40
*	*	*lig	*	*	*
1F	ti-	1A	ti-	.	.
.	.	.	.	2d/	ti-
1E	.	1G	.	0e	-bi
*	*	*Xlig	*	*	*
=41	=41	=41	=41	=41	=41
2E/	-bi	1G	-bi	.	.
2C/	.	.	.	.	.
1E	prop-	1G	prop-	1g	prop-
=42	=42	=42	=42	=42	=42
*	*	*	*	*custos:e	*
1D	-ter	1A	-ter	1f	-ter
*	*	*custos:B	*	*	*
!	!	!	!	!LO:LB:g=original	!
1C	mag-	1c	ma-	1e	mag-
!	!	!LO:LB:g=original	!	!	!
=43	=43	=43	=43	=43	=43
*	*	*lig	*	*	*
1G	-na(m)	1B	-gna(m)	2d/	-na(m)
.	.	.	.	1e	.
1A	.	1c	.	.	.
.	.	.	.	1c	glo-
*	*	*Xlig	*	*	*
=44	=44	=44	=44	=44	=44
*	*	*lig	*	*	*
1G	glo-	1d	glo-	.	.
.	.	.	.	2B/	.
2C/	.	1c	.	2c/	.
1c	-ri-	.	.	2A/	.
*	*	*Xlig	*	*	*
=45	=45	=45	=45	=45	=45
*	*	*lig	*	*	*
.	.	1d	-ri-	2G/	-ri-
2B\	-am	.	.	1g	-am
2c\	.	1e	.	.	.
2C/	.	.	.	2e/	.
*	*	*Xlig	*	*	*
=46	=46	=46	=46	=46	=46
1D	tu-	1d	-am	1f	tu-
*	*	*	*	*custos:f	*
0.E;	-am	1B	tv-	0.g;	-am
!	!	!	!	!LO:LB:g=original	!
=47	=47	=47	=47	=47	=47
*	*	*custos:A	*	*	*
.	.	0B;	-am	.	.
!	!	!LO:LB:g=original	!	!	!
=48	=48	=48	=48	=48	=48
*	*	*lig	*	*	*
1D	Do-	1A	do-	1f	Do-
2C/	.	1e	.	2g\	.
1c	.	.	.	2e/	.
*	*	*Xlig	*	*	*
=49	=49	=49	=49	=49	=49
.	.	1g	-mi-	1d	.
2B\	.	.	.	.	.
2c\	-mi-	1e	-ne	2c/	-mi-
2C/	-ne	.	.	1g	-ne
=50	=50	=50	=50	=50	=50
*custos:C	*	*	*	*	*
1D	.	1d	de-	.	.
.	.	.	.	2f\	.
*	*	*custos:d	*	*	*
!LO:LB:g=original	!	!	!	!	!
2C/	de-	1e	.	2g\	de-
2c\	-us	.	.	1a	-vs
!	!	!LO:LB:g=original	!	!	!
=51	=51	=51	=51	=51	=51
*	*	*lig	*	*	*
2B\	.	1d	-us	.	.
2G/	.	.	.	1g	.
1A,	.	1c	.	.	.
.	.	.	.	2f\	rex
*	*	*Xlig	*	*	*
=52	=52	=52	=52	=52	=52
1G	rex	1d	rex	1g	.
*	*	*lig	*	*	*
1G	cel-	1d	cel-	1d	cel-
=53	=53	=53	=53	=53	=53
2E/	-le-	1c	.	2e/	.
*	*	*	*	*custos:g	*
1F	.	.	.	1a	.
*	*	*Xlig	*	*	*
.	.	1c	-les-	.	.
!	!	!	!	!LO:LB:g=original	!
2G/	.	.	.	1g	.
=54	=54	=54	=54	=54	=54
1A	-stis	1c	-tis	.	.
.	.	.	.	2f/	-leſ-
*lig	*	*lig	*	*	*
1G	de-	1B	de-	1g	-tis
=55	=55	=55	=55	=55	=55
1C	.	1c	.	1e	de-
*Xlig	*	*Xlig	*	*	*
0G	-vs	1d	-us	2d/	.
.	.	.	.	1c	.
=56	=56	=56	=56	=56	=56
*	*	*lig	*	*	*
.	.	1d	.	.	.
.	.	.	.	2B/	.
*lig	*	*	*	*	*
1A	.	1c	.	1c	-us
*	*	*Xlig	*	*	*
=57	=57	=57	=57	=57	=57
*custos:C	*	*	*	*	*
*	*	*lig	*	*	*
1G	.	1B	.	1d	.
!LO:LB:g=original	!	!	!	!	!
*Xlig	*	*	*	*	*
1C	.	1c	.	2e/	.
.	.	.	.	1g	pa-
*	*	*Xlig	*	*	*
=58	=58	=58	=58	=58	=58
1D	pa-	1A	pa-	.	.
.	.	.	.	2f/	-ter
1E	-ter	1G	-ter	1g	om-
=59	=59	=59	=59	=59	=59
*	*	*custos:c	*	*	*
2D/	om-	1d	om-	2f/	.
*	*	*	*	*custos:e	*
1G	-ni-	.	.	2g\	.
!	!	!LO:LB:g=original	!	!	!
!	!	!	!	!LO:LB:g=original	!
.	.	1c	-ni-	2e\	-ni-
2F/	-po-	.	.	2f\	.
=60	=60	=60	=60	=60	=60
2G/	.	1B	.	2d/	.
2E/	.	.	.	1e	.
1F	.	1A	-po-	.	.
.	.	.	.	2d/	.
=61	=61	=61	=61	=61	=61
1E	.	1B	.	1e	-po-
1E;	-tens	1B;	-tens	1e;	-tens
=62	=62	=62	=62	=62	=62
1E	Do-	1G	Do-	1g	do-
*lig	*	*lig	*	*lig	*
1D	-mi-	1A	-mi-	1f	-mi-
=63	=63	=63	=63	=63	=63
*custos:C	*	*	*	*	*
1C	.	1c	.	1e	.
!LO:LB:g=original	!	!	!	!	!
*Xlig	*	*Xlig	*	*Xlig	*
2C/	-ne	1c	-ne	2g\	-ne
2F,/	.	.	.	2a\	fi-
=64	=64	=64	=64	=64	=64
*	*	*lig	*	*	*
2E/	fi-	1c	fi-	2g\	.
*	*	*	*	*custos:g	*
2A/	.	.	.	2f\	.
!	!	!	!	!LO:LB:g=original	!
1G	.	1B	.	2g\	.
.	.	.	.	1d	-li
*	*	*Xlig	*	*	*
=65	=65	=65	=65	=65	=65
*	*	*lig	*	*	*
1D	-li	1A	-li	.	.
.	.	.	.	2d/	.
2E/	.	1G	.	1B	u-
1G	u-	.	.	.	.
*	*	*Xlig	*	*	*
=66	=66	=66	=66	=66	=66
.	.	1A	u-	1A	-ni-
2F/	-ni-	.	.	.	.
1G	-ge-	1B	-ni-	2G/	-ge-
.	.	.	.	1g	.
=67	=67	=67	=67	=67	=67
*	*	*custos:G	*	*	*
1D	-ni-	1A	-ge-	.	.
.	.	.	.	2f\	-ni-
!	!	!LO:LB:g=original	!	!	!
1d	-te	1G	-ni-	1g	-te
=68	=68	=68	=68	=68	=68
1B	Je-	1G	-te	1d	Je-
*lig	*	*lig	*	*	*
1G	-su	1d	Je-	2d/	.
.	.	.	.	2g\	-su
=69	=69	=69	=69	=69	=69
1A	.	1c	.	2e/	.
.	.	.	.	2f\	.
*Xlig	*	*Xlig	*	*	*
*lig	*	*lig	*	*	*
1G	.	1d	-sv	1g	.
=70	=70	=70	=70	=70	=70
*custos:D	*	*	*	*custos:f	*
1C	.	1e	.	1g	.
!LO:LB:g=original	!	!	!	!	!
!	!	!	!	!LO:LB:g=original	!
*Xlig	*	*Xlig	*	*	*
1D	.	1d	.	1f	.
=71	=71	=71	=71	=71	=71
1E	cris-	1B	cris-	1e	cris-
1E;	-te	1B;	-te	1e;	-te
=72	=72	=72	=72	=72	=72
*lig	*	*	*	*	*
1C	Do-	1e	Do-	0g	Do-
*	*	*lig	*	*	*
1G	.	1d	.	.	.
*Xlig	*	*	*	*	*
=73	=73	=73	=73	=73	=73
2C/	.	1c	.	2e/	.
1c	-mi-	.	.	2f\	.
*	*	*Xlig	*	*	*
.	.	1d	-mi-	0g	-mi-
4B/	.	.	.	.	.
4A/	.	.	.	.	.
=74	=74	=74	=74	=74	=74
*	*	*lig	*	*	*
2B/	-ne	1d	-ne	.	.
2G/	.	.	.	.	.
*	*	*custos:c	*	*	*
1A	.	1c	.	1e	-ne
!	!	!LO:LB:g=original	!	!	!
*	*	*Xlig	*	*	*
=75	=75	=75	=75	=75	=75
2E/	de-	1c	de-	2g\	de-
1F	-us	.	.	1a	-vs
.	.	1c	-vs	.	.
*custos:D	*	*	*	*	*
2E/	.	.	.	1g	a-
!LO:LB:g=original	!	!	!	!	!
=76	=76	=76	=76	=76	=76
1D	a-	1B	a-	.	.
.	.	.	.	2f/	.
*	*	*lig	*	*	*
*	*	*	*	*custos:d	*
1C	.	1c	.	1e	.
=77	=77	=77	=77	=77	=77
1G	.	1d	.	2d/	-gnus
.	.	.	.	2g\	.
*	*	*Xlig	*	*	*
2F/	-gnus	1d	-gnus	2a\	de-
2G/	.	.	.	1g	.
=78	=78	=78	=78	=78	=78
*	*	*lig	*	*	*
1A	.	1c	.	.	.
.	.	.	.	2f\	-i
*lig	*	*	*	*	*
1G	de-	1B	.	1g	.
*	*	*Xlig	*	*	*
=79	=79	=79	=79	=79	=79
*	*	*	*	*lig	*
1C	.	1c	.	1e	.
*Xlig	*	*	*	*	*
1D	-i	1A	de-	1d	.
*	*	*	*	*Xlig	*
=80	=80	=80	=80	=80	=80
1d,	.	1G	-i	1B	.
2B\	fi-	1d	fi-	2G/	fi-
2G/	.	.	.	1g	.
=81	=81	=81	=81	=81	=81
*lig	*	*lig	*	*	*
1A	-lu-	1c	-li-	.	.
.	.	.	.	2f\	.
*	*	*	*	*lig	*
1G	.	1B	.	1g	.
*Xlig	*	*Xlig	*	*	*
=82	=82	=82	=82	=82	=82
1F,	-is	1A	-us	1a	.
*	*	*	*	*Xlig	*
1G	pat-	1B	pat-	0g	-lu-
=83	=83	=83	=83	=83	=83
*custos:G	*	*custos:G	*	*	*
1G	-ris	1B	-ris	.	.
!LO:LB:g=original	!	!LO:LB:g=original	!	!	!
1G	qvi	1G	Qui	1d	-is
=84	=84	=84	=84	=84	=84
*	*	*	*	*custos:e	*
2G/	tol-	1G	tol-	2d/	pa-
!	!	!	!	!LO:LB:g=original	!
2E/	.	.	.	2e\	.
*lig	*	*lig	*	*	*
1D	.	1A	.	1f	-tris
=85	=85	=85	=85	=85	=85
1C	.	1c	.	0g	qvi
*Xlig	*	*Xlig	*	*	*
1C	-lis	1c	-lis	.	.
=86	=86	=86	=86	=86	=86
*lig	*	*lig	*	*	*
1G	pec-	1B	pec-	1g	tol-
1A	.	1A	.	2e\	-lis
.	.	.	.	2f\	pec-
*Xlig	*	*Xlig	*	*	*
=87	=87	=87	=87	=87	=87
1G	.	1B	.	0g	-ca-
*	*	*lig	*	*	*
2C/	-ca-	1c	-ca-	.	.
2c\	.	.	.	.	.
=88	=88	=88	=88	=88	=88
2d\	.	1B	.	1g	-ta
2B\	.	.	.	.	.
*	*	*Xlig	*	*	*
*	*	*lig	*	*	*
1c	-ta	1A	-ta	1a	.
=89	=89	=89	=89	=89	=89
2C/	.	1G	.	2e/	mu(n)-
2E/	.	.	.	1g	.
*	*	*Xlig	*	*	*
*custos:G	*	*	*	*	*
1D	mu(n)-	1A	mun-	.	.
.	.	.	.	2f\	-di
!LO:LB:g=original	!	!	!	!	!
=90	=90	=90	=90	=90	=90
1G	-di	1G	-di	1g	mi-
2G/	mi-	1G	mi-	2d/	-se-
2E/	-se-	.	.	2g\	.
=91	=91	=91	=91	=91	=91
*	*	*lig	*	*	*
*	*	*	*	*custos:e	*
2F/	.	1A	-se-	2f\	.
!	!	!	!	!LO:LB:g=original	!
2A/	.	.	.	2e\	.
*	*	*custos:c	*	*	*
1G	.	1B	.	0g	re-
!	!	!LO:LB:g=original	!	!	!
*	*	*Xlig	*	*	*
=92	=92	=92	=92	=92	=92
*	*	*lig	*	*	*
2C/	-re-	1c	-re-	.	.
2c\	-re	.	.	.	.
2d\	.	1B	.	1g	-re
2B\	.	.	.	.	.
*	*	*Xlig	*	*	*
=93	=93	=93	=93	=93	=93
*	*	*lig	*	*	*
1c	.	1A	-re	1a	No-
2C/	.	1G	.	2e\	.
2E/	.	.	.	1g	.
*	*	*Xlig	*	*	*
=94	=94	=94	=94	=94	=94
1D	No-	1A	No-	.	.
.	.	.	.	2f\	.
*custos:G	*	*	*	*	*
1G;	-bis	1G;	-bis	1g;	-bis
!LO:LB:g=original	!	!	!	!	!
=95	=95	=95	=95	=95	=95
1G	qvi	1G	Qui	1g	qvi
*	*	*	*	*lig	*
2C/	tol-	1G	tol-	1g	tol-
2E/	.	.	.	.	.
=96	=96	=96	=96	=96	=96
*	*	*lig	*	*	*
1D	.	1A	.	1f	.
*	*	*	*	*Xlig	*
1A	.	1c	.	1e	-lis
*	*	*Xlig	*	*	*
=97	=97	=97	=97	=97	=97
*	*	*	*	*custos:e	*
2F/	-lis	1c	-lis	2f\	.
!	!	!	!	!LO:LB:g=original	!
2A/	.	.	.	2e\	.
*	*	*lig	*	*	*
1G	pec-	1B	pec-	1g	pec-
=98	=98	=98	=98	=98	=98
2C/	-ca-	1c	.	1g	.
2E/	-ta	.	.	.	.
*	*	*Xlig	*	*	*
2D/	.	1d	-ca-	2f\	-ca-
2d\	.	.	.	1d	-ta
=99	=99	=99	=99	=99	=99
*	*	*custos:c	*	*	*
2G/	.	1d	-ta	.	.
*custos:A	*	*	*	*	*
2B\	.	.	.	1g	.
!LO:LB:g=original	!	!LO:LB:g=original	!	!	!
*	*	*lig	*	*	*
1A	.	1c	.	.	.
.	.	.	.	2f\	.
=100	=100	=100	=100	=100	=100
1G	.	1B	.	1g	.
*	*	*Xlig	*	*	*
2D/	mun-	1A	mun-	1a	mun-
2F/	-di	.	.	.	.
=101	=101	=101	=101	=101	=101
1E	.	1B	-di	1g	-di
1E	Sus-	1G	su-	2g\	suſ-
.	.	.	.	2e/	-ci-
=102	=102	=102	=102	=102	=102
*lig	*	*lig	*	*lig	*
1D	-ci-	1A	-ſci-	1f	.
1C	.	1c	.	1g	.
*Xlig	*	*Xlig	*	*Xlig	*
=103	=103	=103	=103	=103	=103
1C	-pe	1c	-pe	1e	-pe
*	*	*	*	*custos:e	*
1G	de-	1B	de-	1d	de-
!	!	!	!	!LO:LB:g=original	!
=104	=104	=104	=104	=104	=104
2C/	-pre-	1c	-pre-	1e	-pre-
1c	-ca-	.	.	.	.
.	.	1d	-ca-	1f	-ca-
2B/	-ci-	.	.	.	.
=105	=105	=105	=105	=105	=105
2c\	-o-	1c	-ci-	2e/	-ci-
2A/	.	.	.	2f/	.
*lig	*	*lig	*	*	*
1G	-nem	1d	-o-	1g	-o-
=106	=106	=106	=106	=106	=106
*custos:G	*	*	*	*	*
1C	.	1e	.	1g	-nem
!LO:LB:g=original	!	!	!	!	!
*Xlig	*	*Xlig	*	*	*
*lig	*	*	*	*	*
1G	.	0d	-nem	1g	.
=107	=107	=107	=107	=107	=107
*	*	*custos:B	*	*	*
1D	.	.	.	1a	.
*Xlig	*	*	*	*	*
1E	nos-	1B	nos-	1g	nos-
!	!	!LO:LB:g=original	!	!	!
=108	=108	=108	=108	=108	=108
0E;	-tra(m)	0B;	-tram	0g;	-tram
=109	=109	=109	=109	=109	=109
*	*	*lig	*	*	*
1F	qvi	1A	qvi	2f\	qvi
.	.	.	.	1a	.
2E/	.	1e	.	.	.
2C/	.	.	.	1g	.
*	*	*Xlig	*	*	*
=110	=110	=110	=110	=110	=110
*	*	*	*	*custos:f	*
1D	se-	1d	se-	.	.
.	.	.	.	2f\	se-
!	!	!	!	!LO:LB:g=original	!
*	*	*lig	*	*	*
2C/	.	1e	-des	2g\	-des
1c	.	.	.	2e/	.
=111	=111	=111	=111	=111	=111
.	.	1g	.	1d	.
2B\	-des	.	.	.	.
*	*	*Xlig	*	*	*
2c\	.	1e	.	2e/	.
2C/	.	.	.	1c	.
=112	=112	=112	=112	=112	=112
*custos:C	*	*	*	*	*
1D	ad	1d	ad	.	.
.	.	.	.	2B/	ad
!LO:LB:g=original	!	!	!	!	!
1C	dex-	1e	dex-	2c/	.
.	.	.	.	1g	dex-
=113	=113	=113	=113	=113	=113
*lig	*	*lig	*	*	*
1G	.	1d	-te-	.	.
.	.	.	.	2g\	.
1A	.	1c	.	1e	-te-
*Xlig	*	*Xlig	*	*	*
=114	=114	=114	=114	=114	=114
2D/	te-	1d	-ram	2f\	.
2F/	.	.	.	2a\	-ram
*	*	*lig	*	*	*
1G	-ram	1d	pa-	1g	.
=115	=115	=115	=115	=115	=115
*	*	*custos:c	*	*	*
1A	.	1c	.	2e/	.
.	.	.	.	1a	pat-
!	!	!LO:LB:g=original	!	!	!
*	*	*Xlig	*	*	*
2F/	.	1c	.	.	.
2E/	.	.	.	2g\	.
=116	=116	=116	=116	=116	=116
*	*	*	*	*custos:e	*
2F/	pa-	1c	-tris	2f/	-ris
!	!	!	!	!LO:LB:g=original	!
2A\	-tris	.	.	2e/	.
1G	.	1B	mi-	1g	.
=117	=117	=117	=117	=117	=117
*	*	*lig	*	*	*
2E/	mi-	1c	.	2g\	mi-
2F/	.	.	.	1a	-se-
2D/	.	1d	.	.	.
*custos:F	*	*	*	*	*
2G/	.	.	.	2g\	.
!LO:LB:g=original	!	!	!	!	!
*	*	*Xlig	*	*	*
=118	=118	=118	=118	=118	=118
*	*	*lig	*	*	*
2F/	.	1d	-se-	2a\	.
2G/	.	.	.	2g\	-re-
2A/	.	1c	.	2e/	.
2F/	-ſe-	.	.	2f\	.
*	*	*Xlig	*	*	*
=119	=119	=119	=119	=119	=119
*	*	*lig	*	*	*
2G/	-re-	1B	.	2d/	.
1E	-re	.	.	1g	.
.	.	1c	.	.	.
2C/	.	.	.	2e/	.
*	*	*Xlig	*	*	*
=120	=120	=120	=120	=120	=120
*lig	*	*	*	*	*
1D	.	1A	-re-	1f	-re
1E	.	1G	-re	2e/	.
.	.	.	.	2c/	no-
*Xlig	*	*	*	*	*
=121	=121	=121	=121	=121	=121
2D/	.	0A	no-	2d/	.
*	*	*	*	*custos:d	*
2C/	.	.	.	2e/	.
!	!	!	!	!LO:LB:g=original	!
1D	.	.	.	1d	.
=122	=122	=122	=122	=122	=122
1d	No-	00G;	-bis	1B	.
2d\	.	.	.	2B/	.
2B\	.	.	.	2G/	.
=123	=123	=123	=123	=123	=123
*custos:G	*	*	*	*	*
0B;	-bis	.	.	0d;	-bis
!LO:LB:g=original	!	!	!	!	!
=124	=124	=124	=124	=124	=124
*	*	*custos:A	*	*	*
1G	qvo-	1G	qvo-	1d	qvo-
!	!	!LO:LB:g=original	!	!	!
*lig	*	*lig	*	*lig	*
1F	-ni-	1A	-ni-	1f	-ni-
=125	=125	=125	=125	=125	=125
1E	.	1B	.	1g	.
*Xlig	*	*Xlig	*	*Xlig	*
1E	-am	1B	-am	1g	-am
=126	=126	=126	=126	=126	=126
*	*	*lig	*	*	*
1G	tu	1B	tu	2d/	tv
.	.	.	.	1g	.
*lig	*	*	*	*	*
1A	.	1A	.	.	.
.	.	.	.	2f\	.
*	*	*Xlig	*	*	*
=127	=127	=127	=127	=127	=127
1G	.	1B	.	1g	.
*Xlig	*	*	*	*	*
*lig	*	*lig	*	*	*
1C	so-	1c	so-	1e	so-
=128	=128	=128	=128	=128	=128
*	*	*	*	*custos:e	*
1G	.	1B	.	2d/	.
!	!	!	!	!LO:LB:g=original	!
.	.	.	.	1e	.
*Xlig	*	*Xlig	*	*	*
1D	-lus	1A	-lus	.	.
.	.	.	.	1d	-lus
=129	=129	=129	=129	=129	=129
*lig	*	*	*	*	*
1E	San-	1G	san-	.	.
.	.	.	.	2c/	San-
1D	.	1A	.	0d	-ctus
*Xlig	*	*	*	*	*
=130	=130	=130	=130	=130	=130
1D	-ctus	1A	-ctus	.	.
*	*	*lig	*	*lig	*
1G	tu	1B	tu	1d	Tu
=131	=131	=131	=131	=131	=131
2C/	.	1c	.	1e	.
1c	so-	.	.	.	.
*	*	*Xlig	*	*Xlig	*
*	*	*lig	*	*	*
.	.	1d	so-	1g	so-
2B\	.	.	.	.	.
=132	=132	=132	=132	=132	=132
*	*	*custos:d	*	*	*
1c	.	1c	.	2e/	.
.	.	.	.	1c	.
!	!	!LO:LB:g=original	!	!	!
*lig	*	*Xlig	*	*	*
*	*	*lig	*	*	*
1G	-lus	1d	-lus	.	.
.	.	.	.	2B/	lus
=133	=133	=133	=133	=133	=133
1C	.	1e	.	2c/	.
.	.	.	.	1g	do-
*Xlig	*	*Xlig	*	*	*
1G	do-	1d	do-	.	.
.	.	.	.	2g\	.
=134	=134	=134	=134	=134	=134
*	*	*lig	*	*	*
1A	.	1c	.	2e/	.
.	.	.	.	2f\	-mi-
2G/	.	1B	.	1g	-nus
2E/	.	.	.	.	.
*	*	*Xlig	*	*	*
=135	=135	=135	=135	=135	=135
*lig	*	*lig	*	*lig	*
1F	-mi-	1A	-mi-	1a	.
*	*	*	*	*custos:g	*
1C	.	1c	.	1g	.
*Xlig	*	*Xlig	*	*Xlig	*
!	!	!	!	!LO:LB:g=original	!
=136	=136	=136	=136	=136	=136
1C,	-nus	1c	-nus	1g	.
1E	tu	1G	tu	1e	tu
=137	=137	=137	=137	=137	=137
*lig	*	*lig	*	*	*
1E	so-	1G	so-	2e/	so-
.	.	.	.	2c/	.
1D	.	1A	.	2d/	.
.	.	.	.	1f	.
*Xlig	*	*Xlig	*	*	*
=138	=138	=138	=138	=138	=138
1C	.	1c	-lus	.	.
.	.	.	.	4e/	.
.	.	.	.	4d/	.
*custos:G	*	*	*	*	*
1C	-lus	1c	al-	1e	.
!LO:LB:g=original	!	!	!	!	!
=139	=139	=139	=139	=139	=139
*lig	*	*lig	*	*	*
1G	al-	1B	.	1d	-lus
*	*	*	*	*lig	*
1F	.	1A	.	1a	al-
*Xlig	*	*Xlig	*	*	*
=140	=140	=140	=140	=140	=140
2E/	.	1B	.	1g	.
1G	.	.	.	.	.
*	*	*	*	*Xlig	*
*	*	*custos:B	*	*	*
.	.	1c	-tis-	2e/	-tiſ-
2F/	-tiſ-	.	.	2f\	.
!	!	!LO:LB:g=original	!	!	!
=141	=141	=141	=141	=141	=141
1G	.	1B	-ſi-	2d/	.
.	.	.	.	1g	.
*lig	*	*lig	*	*	*
1D	-si-	1A	.	.	.
*	*	*	*	*custos:g	*
.	.	.	.	2f\	.
!	!	!	!	!LO:LB:g=original	!
=142	=142	=142	=142	=142	=142
1GG	.	1G	.	0g	-si-
*Xlig	*	*Xlig	*	*	*
1GG	-mus	1G	-mus	.	.
=143	=143	=143	=143	=143	=143
*lig	*	*lig	*	*lig	*
1G	ie-	1d	ie-	1g	-mus
1A	.	1c	.	1f	.
*Xlig	*	*Xlig	*	*Xlig	*
=144	=144	=144	=144	=144	=144
*lig	*	*lig	*	*	*
1G	-su	1d	-su	0g	Je-
1C	.	1e	.	.	.
*Xlig	*	*Xlig	*	*	*
=145	=145	=145	=145	=145	=145
0D	.	0d	.	0f	-su
=146	=146	=146	=146	=146	=146
1d	cris-	1B	cris-	1g	cris-
*custos:A	*	*	*	*	*
1d;	-te	1B;	-te	1g;	-te
!LO:LB:g=original	!	!	!	!	!
=147	=147	=147	=147	=147	=147
*	*	*lig	*	*	*
1A	Cum	1A	Cum	1a	Cum
2E/	.	1e	.	2g\	.
2A/	.	.	.	1e	san-
*	*	*Xlig	*	*	*
=148	=148	=148	=148	=148	=148
2G/	san-	1e	san-	.	.
1c	.	.	.	2c/	-cto
*	*	*lig	*	*	*
.	.	1d	-cto	2d/	.
2B\	-cto	.	.	1g	.
=149	=149	=149	=149	=149	=149
*	*	*custos:d	*	*	*
1A	.	1c	.	.	.
.	.	.	.	2f/	spi-
!	!	!LO:LB:g=original	!	!	!
*	*	*Xlig	*	*	*
*	*	*	*	*custos:d	*
2G/	spi-	1d	spi-	2g\	.
!	!	!	!	!LO:LB:g=original	!
1F	-ri-	.	.	2d/	.
=150	=150	=150	=150	=150	=150
*	*	*lig	*	*	*
.	.	1A	-ri-	1f	.
2D/	.	.	.	.	.
2C/	.	1c	.	1e	.
1C	-tu	.	.	.	.
*	*	*Xlig	*	*	*
=151	=151	=151	=151	=151	=151
.	.	1c	-tu	2e/	-ri-
1c	in	.	.	2c/	-tu
.	.	1G	in	1d	in
4B\	.	.	.	.	.
4A\	glo-	.	.	.	.
=152	=152	=152	=152	=152	=152
*	*	*lig	*	*	*
2B\	-ri-	1G	glo-	2d/	glo-
*custos:c	*	*	*	*	*
2d\	.	.	.	2B/	.
!LO:LB:g=original	!	!	!	!	!
1c	-a	1A	.	1c	-ri-
*	*	*Xlig	*	*	*
=153	=153	=153	=153	=153	=153
2A/	.	1c	.	2c/	-a
1F	.	.	.	1f	.
.	.	1c	-ri-	.	.
2G/	.	.	.	2e/	.
=154	=154	=154	=154	=154	=154
1A	de-	1c	-a	1c	.
2G/	.	1B	de-	2d/	de-
1E	-i	.	.	1g	-i
=155	=155	=155	=155	=155	=155
*	*	*lig	*	*	*
.	.	1c	.	.	.
*	*	*	*	*custos:a	*
1F	.	.	.	2f/	.
!	!	!	!	!LO:LB:g=original	!
.	.	1d	.	2a\	.
2G/	.	.	.	1g	.
*	*	*Xlig	*	*	*
=156	=156	=156	=156	=156	=156
*	*	*lig	*	*	*
1D	.	1d	-i	.	.
.	.	.	.	2f\	.
1A	.	1c	.	2e\	.
.	.	.	.	2f\	.
*	*	*Xlig	*	*	*
=157	=157	=157	=157	=157	=157
*lig	*	*lig	*	*	*
1G	pa-	1B	.	1g	.
1A	.	1c	.	1e	pa-
*Xlig	*	*Xlig	*	*	*
=158	=158	=158	=158	=158	=158
1c	.	1A	pa-	2e/	.
.	.	.	.	2c/	.
*	*	*custos:G	*	*	*
2B\	-tris	1G	-tris	2d/	.
1d	A-	.	.	1B	-tris
!	!	!LO:LB:g=original	!	!	!
=159	=159	=159	=159	=159	=159
*	*	*lig	*	*	*
.	.	1G	A-	.	.
*custos:g	*	*	*	*	*
1B	.	.	.	1G	A-
.	.	1d	.	.	.
!LO:LB:g=original	!	!	!	!	!
2G/	.	.	.	2g\	.
*	*	*Xlig	*	*	*
=160	=160	=160	=160	=160	=160
*	*	*lig	*	*	*
1A	.	1c	.	2e/	.
.	.	.	.	2f\	.
*	*	*	*	*custos:a	*
2G/	.	1d	.	2g\	.
!	!	!	!	!LO:LB:g=original	!
2F/	.	.	.	1a	.
*	*	*Xlig	*	*	*
=161	=161	=161	=161	=161	=161
*	*	*lig	*	*	*
2E/	.	1e	.	.	.
2C/	.	.	.	1g	.
1D	.	1d	.	.	.
.	.	.	.	2f\	.
*	*	*Xlig	*	*	*
=162	=162	=162	=162	=162	=162
1E	.	1B	.	1g	.
0D	.	0d	.	0a	.
=163	=163	=163	=163	=163	=163
.	.	.	.	.	.
1F	.	1c	.	1a	.
=164	=164	=164	=164	=164	=164
1G	.	1B	.	1g	.
1D	.	1A	.	1f	.
=165	=165	=165	=165	=165	=165
1d	.	0G	.	2d/	.
.	.	.	.	2c/	.
2d\	.	.	.	2B/	.
2c\	.	.	.	2A/	.
=166	=166	=166	=166	=166	=166
*custos:A	*	*	*	*	*
2B\	.	0d	.	0G	.
!LO:LB:g=original	!	!	!	!	!
2A/	.	.	.	.	.
1G	.	.	.	.	.
=167	=167	=167	=167	=167	=167
2A/	.	1c	.	2c/	.
2F/	.	.	.	2A/	.
1G	.	1B	.	2B/	.
*	*	*	*	*custos:d	*
.	.	.	.	2G/	.
!	!	!	!	!LO:LB:g=original	!
=168	=168	=168	=168	=168	=168
1D	.	1A	.	1d	.
1d	.	0G	.	1B	.
=169	=169	=169	=169	=169	=169
2B/	.	.	.	2G/	.
1G	.	.	.	2g\	.
*	*	*lig	*	*	*
.	.	1A	.	2e/	.
2F/	.	.	.	2f\	.
=170	=170	=170	=170	=170	=170
1G	.	1G	.	0d	.
*	*	*Xlig	*	*	*
*	*	*lig	*	*	*
1D	.	1A	.	.	.
=171	=171	=171	=171	=171	=171
1GG	.	1B	.	2d/	.
.	.	.	.	1g	.
*	*	*Xlig	*	*	*
2AA/	.	0A	.	.	.
*custos:C	*	*	*	*	*
2BB/	.	.	.	2f\	.
!LO:LB:g=original	!	!	!	!	!
*clefF4	*	*	*	*	*
=172	=172	=172	=172	=172	=172
2C/	.	.	.	2e\	.
2D/	.	.	.	2f\	.
2E/	.	[1G;l	-men	2g\	.
2C/	.	.	.	2e/	.
=173	=173	=173	=173	=173	=173
*	*	*	*	*custos:e	*
1G	.	0G_	.	1d	.
!	!	!	!	!LO:LB:g=original	!
2C/	.	.	.	0e	.
2D/	.	.	.	.	.
=174	=174	=174	=174	=174	=174
2E/	.	0G_	.	.	.
2F/	.	.	.	.	.
1G	.	.	.	1d	.
=175	=175	=175	=175	=175	=175
2G\	.	0G_	.	2d/	.
2GG/	.	.	.	2B/	.
[1GG;l	-men	.	.	[1B;l	-men
=176	=176	=176	=176	=176	=176
0GG]	.	0G]	.	0B]	.
==	==	==	==	==	==
*-	*-	*-	*-	*-	*-
!!!system-decoration: [(s1,s2,s3)]
!!!AIN: 1 bass 1 soprn 1 tenor
!!!ENC: Filip Voros
!!!END: 2022-01-12
!!!ENC: Natalia Wrzos
!!!END: 2022-01-24
!!!RDF**kern: l = terminal long
